src/assets/logo/starz.svg

<?xml version="1.0" encoding="UTF-8" standalone="no"?><!DOCTYPE svg PUBLIC "-//W3C//DTD SVG 1.1//EN" "http://www.w3.org/Graphics/SVG/1.1/DTD/svg11.dtd"><svg width="100%" height="100%" viewBox="0 0 540 200" version="1.1" xmlns="http://www.w3.org/2000/svg" xmlns:xlink="http://www.w3.org/1999/xlink" xml:space="preserve" xmlns:serif="http://www.serif.com/" style="fill-rule:evenodd;clip-rule:evenodd;stroke-linejoin:round;stroke-miterlimit:1.41421;"><g id="starz"><path id="path3887" d="M114.583,76.618l9.36,-18.827c0,0 -14.364,-13.771 -39.57,-13.771c-22.824,0 -37.567,13.516 -37.567,32.683c0,41.273 58.951,26.341 58.951,47.682c0,8.602 -8.656,12.105 -17.119,12.105c-20.849,0 -35.424,-16.477 -35.424,-16.477l-9.214,19.637c0,0 15.891,16.37 43.834,16.37c22.79,0 39.5,-11.184 39.5,-33.658c0,-40.455 -58.893,-25.934 -58.893,-47.615c0,-6.473 6.259,-11.104 15.561,-11.104c16.191,0 30.581,12.975 30.581,12.975Z" style="fill:#a0a0a0;fill-rule:nonzero;"/><path id="path3889" d="M162.924,154.215l0,-88.244l-31.954,0l0,-20.323l86.011,0l0,20.323l-31.955,0l0,88.244l-22.102,0Z" style="fill:#a0a0a0;fill-rule:nonzero;"/><path id="path3891" d="M252.131,45.058l-54.589,109.152l22.751,0l8.405,-16.897l46.6,0l8.521,16.897l22.984,0l-54.672,-109.152Zm-0.067,45.994l13.232,26.256l-26.546,0l13.314,-26.256Z" style="fill:#a0a0a0;fill-rule:nonzero;"/><path id="path3895" d="M311.779,45.643l0,108.567l22.102,0l0,-39.576l15.445,0l22.568,39.576l25.364,0l-25.614,-44.841c11.027,-5.339 18.491,-15.152 18.491,-30.434c0,-16.712 -11.573,-33.292 -38.679,-33.292l-39.677,0Zm22.102,20.323l18.108,0c9.946,0 15.927,5.652 15.927,13.537c0,8.645 -6.981,13.738 -15.927,13.738l-18.108,0l0,-27.275Z" style="fill:#a0a0a0;fill-rule:nonzero;"/><path id="path3899" d="M406.578,65.971l0,-20.323l89.422,0l-55.603,88.779l54.322,0l0,19.788l-92.668,0l55.304,-88.244l-50.777,0Z" style="fill:#a0a0a0;fill-rule:nonzero;"/></g></svg>

<?xml version="1.0" encoding="UTF-8" standalone="no"?>
<!DOCTYPE svg PUBLIC "-//W3C//DTD SVG 1.1//EN" "http://www.w3.org/Graphics/SVG/1.1/DTD/svg11.dtd">
<svg width="100%" height="100%" viewBox="0 0 540 200" version="1.1" xmlns="http://www.w3.org/2000/svg" xmlns:xlink="http://www.w3.org/1999/xlink" xml:space="preserve" xmlns:serif="http://www.serif.com/" style="fill-rule:evenodd;clip-rule:evenodd;stroke-linejoin:round;stroke-miterlimit:2;">
    <g id="starz">
        <path id="path3887" d="M114.583,76.618L123.943,57.791C123.943,57.791 109.579,44.02 84.373,44.02C61.549,44.02 46.806,57.536 46.806,76.703C46.806,117.976 105.757,103.044 105.757,124.385C105.757,132.987 97.101,136.49 88.638,136.49C67.789,136.49 53.214,120.013 53.214,120.013L44,139.65C44,139.65 59.891,156.02 87.834,156.02C110.624,156.02 127.334,144.836 127.334,122.362C127.334,81.907 68.441,96.428 68.441,74.747C68.441,68.274 74.7,63.643 84.002,63.643C100.193,63.643 114.583,76.618 114.583,76.618Z" style="fill:rgb(208,208,208);fill-rule:nonzero;"/>
        <path id="path3889" d="M162.924,154.215L162.924,65.971L130.97,65.971L130.97,45.648L216.981,45.648L216.981,65.971L185.026,65.971L185.026,154.215L162.924,154.215Z" style="fill:rgb(208,208,208);fill-rule:nonzero;"/>
        <path id="path3891" d="M252.131,45.058L197.542,154.21L220.293,154.21L228.698,137.313L275.298,137.313L283.819,154.21L306.803,154.21L252.131,45.058ZM252.064,91.052L265.296,117.308L238.75,117.308L252.064,91.052Z" style="fill:rgb(208,208,208);fill-rule:nonzero;"/>
        <path id="path3895" d="M311.779,45.643L311.779,154.21L333.881,154.21L333.881,114.634L349.326,114.634L371.894,154.21L397.258,154.21L371.644,109.369C382.671,104.03 390.135,94.217 390.135,78.935C390.135,62.223 378.562,45.643 351.456,45.643L311.779,45.643ZM333.881,65.966L351.989,65.966C361.935,65.966 367.916,71.618 367.916,79.503C367.916,88.148 360.935,93.241 351.989,93.241L333.881,93.241L333.881,65.966Z" style="fill:rgb(208,208,208);fill-rule:nonzero;"/>
        <path id="path3899" d="M406.578,65.971L406.578,45.648L496,45.648L440.397,134.427L494.719,134.427L494.719,154.215L402.051,154.215L457.355,65.971L406.578,65.971Z" style="fill:rgb(208,208,208);fill-rule:nonzero;"/>
    </g>
</svg>
